components/Common/Svg/svgs/agile.svg

<svg width="40" height="40" viewBox="0 0 40 40" fill="none" xmlns="http://www.w3.org/2000/svg">
<path d="M22.1804 15.7986C22.6289 16.2511 23.356 16.2511 23.8044 15.7986C24.2529 15.3462 24.2529 14.6126 23.8044 14.1601L20.329 10.6539C21.5211 10.8014 22.6789 11.184 23.7343 11.7865C25.3158 12.6891 26.5964 14.0446 27.4142 15.6816C28.2321 17.3185 28.5505 19.1634 28.3291 20.9829C28.1077 22.8024 27.3566 24.5149 26.1706 25.9037C24.9846 27.2924 23.417 28.2952 21.6662 28.7852C20.8623 29.0101 20.0362 29.1224 19.2109 29.1224H2.15858C1.51872 29.1224 1 29.6411 1 30.2809C1 30.9208 1.51872 31.4395 2.15858 31.4395H35.5559L32.0058 35.0233C31.5574 35.4759 31.5576 36.2095 32.0062 36.6618C32.4548 37.1142 33.1819 37.114 33.6302 36.6614L38.3278 31.9192C39.2243 31.0142 39.224 29.5474 38.3273 28.6427L33.7366 24.0109C33.2881 23.5585 32.561 23.5585 32.1126 24.0109C31.6641 24.4634 31.6641 25.197 32.1126 25.6494L35.5548 29.1224L26.1009 29.1224C26.76 28.6236 27.3673 28.0523 27.9105 27.4162C29.393 25.6802 30.3319 23.5396 30.6087 21.2652C30.8854 18.9908 30.4874 16.6847 29.4651 14.6385C28.4427 12.5923 26.842 10.898 24.8652 9.76966C23.4615 8.96847 21.913 8.47826 20.3222 8.32219L23.636 4.97878C24.0845 4.52632 24.0845 3.79274 23.636 3.34029C23.1876 2.88783 22.4605 2.88783 22.012 3.34029L17.5461 7.84613C16.6492 8.75104 16.6492 10.2182 17.5461 11.1231L22.1804 15.7986Z" fill="#161616"/>
<path d="M15.0464 11.5921C13.87 12.1958 12.8311 13.0508 12.0054 14.1042C10.8783 15.5421 10.1992 17.2849 10.0539 19.1122C9.90849 20.9395 10.3035 22.7692 11.1888 24.37C11.6987 25.292 12.3581 26.1142 13.1347 26.8052L10.0244 26.8052C9.71644 26.3909 9.43523 25.9548 9.18322 25.4991C8.36531 24.0202 7.88224 22.385 7.75916 20.7103C7.71571 20.119 7.71713 19.5228 7.76454 18.9268C7.77904 18.7445 7.79776 18.5629 7.8207 18.3821C8.08527 16.2974 8.90758 14.3208 10.204 12.6669C11.3619 11.1896 12.8553 10.0244 14.5504 9.26492C14.5132 10.0613 14.6785 10.8654 15.0464 11.5921Z" fill="#161616"/>
</svg>

<svg width="40" height="40" viewBox="0 0 40 40" fill="none" xmlns="http://www.w3.org/2000/svg"><path d="M22.18 15.799a1.141 1.141 0 0 0 1.624 0 1.166 1.166 0 0 0 0-1.639l-3.475-3.506c1.192.147 2.35.53 3.405 1.133a9.232 9.232 0 0 1 3.68 3.895 9.34 9.34 0 0 1-1.243 10.222 9.178 9.178 0 0 1-4.505 2.881 9.113 9.113 0 0 1-2.455.337H2.159a1.159 1.159 0 1 0 0 2.317h33.397l-3.55 3.584a1.166 1.166 0 0 0 0 1.639 1.141 1.141 0 0 0 1.624 0l4.698-4.743a2.332 2.332 0 0 0 0-3.276l-4.591-4.632a1.141 1.141 0 0 0-1.624 0 1.166 1.166 0 0 0 0 1.638l3.442 3.473H26.1c.659-.498 1.266-1.07 1.81-1.706a11.637 11.637 0 0 0 2.698-6.15 11.676 11.676 0 0 0-1.144-6.627 11.543 11.543 0 0 0-4.6-4.87 11.411 11.411 0 0 0-4.543-1.447l3.314-3.343a1.166 1.166 0 0 0 0-1.639 1.141 1.141 0 0 0-1.624 0l-4.466 4.506a2.332 2.332 0 0 0 0 3.277L22.18 15.8Z" fill="#161616"/><path d="M15.046 11.592a9.204 9.204 0 0 0-3.04 2.512 9.337 9.337 0 0 0-.817 10.266 9.253 9.253 0 0 0 1.946 2.435h-3.11a11.662 11.662 0 0 1-2.204-8.423 11.64 11.64 0 0 1 2.383-5.715 11.497 11.497 0 0 1 4.346-3.402c-.037.796.128 1.6.496 2.327Z" fill="#161616"/></svg>
